picto/chair-lift-right-framed.svg

<svg class="color-immutable" width="30" height="30" viewBox="0 0 30 30" fill="none" xmlns="http://www.w3.org/2000/svg"><path d="M30 0H0V30H30V0Z" fill="#2D327D"/><path d="M25.5 3C26.325 3 27 3.675 27 4.5V25.5C27 26.325 26.325 27 25.5 27H4.5C3.675 27 3 26.325 3 25.5V4.5C3 3.675 3.675 3 4.5 3H25.5ZM25.5 2.625H4.5C3.46613 2.625 2.625 3.46613 2.625 4.5V25.5C2.625 26.5339 3.46613 27.375 4.5 27.375H25.5C26.5339 27.375 27.375 26.5339 27.375 25.5V4.5C27.375 3.46613 26.5339 2.625 25.5 2.625Z" fill="white"/><path d="M11.2125 8.13157L24.0001 5.99992V6.68415L11.2125 8.81595V8.13157Z" fill="white"/><path d="M9.41145 8.43158V9.1158L6 9.68498V8.99978L9.41145 8.43158Z" fill="white"/><path d="M7.72461 20.0255V16.3162C7.72461 15.6961 8.22928 15.1918 8.84961 15.1918C9.21471 15.1918 9.55648 15.3683 9.76761 15.6664L11.6264 18.2884C11.6869 18.3748 11.7194 18.4768 11.7194 18.5817C11.7194 18.8614 11.4925 19.0887 11.214 19.0887C11.0494 19.0887 10.8952 19.0079 10.8006 18.8743L10.049 17.8148V19.3876H12.1114C12.5266 19.3876 12.862 19.7237 12.862 20.1379V23.3068C12.862 23.6902 12.5518 24.0004 12.1681 24.0004C11.7862 24.0004 11.4751 23.6902 11.4751 23.3068V20.7757H8.47521C8.06106 20.7757 7.72461 20.4387 7.72461 20.0255Z" fill="white"/><path d="M9.8238 7.5H10.7992V11.431L6.97463 12.069V21.5246H10.7992V22.4995H6V11.2426L9.8238 10.6058V7.5Z" fill="white"/><path d="M8.98625 14.7777C8.40643 14.7777 7.9364 14.3069 7.9364 13.7276C7.9364 13.1473 8.40643 12.6774 8.98625 12.6774C9.56585 12.6774 10.036 13.1473 10.036 13.7276C10.036 14.3069 9.56578 14.7777 8.98625 14.7777Z" fill="white"/></svg>

<svg class="color-immutable" width="30" height="30" viewBox="0 0 30 30" fill="none" xmlns="http://www.w3.org/2000/svg"><g clip-path="url(#a)"><path d="M30 0H0v30h30V0Z" fill="#2D327D"/><path d="M25.5 3c.825 0 1.5.675 1.5 1.5v21c0 .825-.675 1.5-1.5 1.5h-21c-.825 0-1.5-.675-1.5-1.5v-21C3 3.675 3.675 3 4.5 3h21Zm0-.375h-21A1.877 1.877 0 0 0 2.625 4.5v21c0 1.034.841 1.875 1.875 1.875h21a1.877 1.877 0 0 0 1.875-1.875v-21A1.877 1.877 0 0 0 25.5 2.625Z" fill="#fff"/><path d="M11.213 8.132 24 6v.684L11.213 8.816v-.684ZM9.411 8.432v.684L6 9.685V9l3.411-.568ZM7.725 20.026v-3.71a1.126 1.126 0 0 1 2.043-.65l1.858 2.622a.507.507 0 0 1-.826.586l-.751-1.06v1.574h2.062a.75.75 0 0 1 .751.75v3.169a.693.693 0 1 1-1.387 0v-2.531h-3a.751.751 0 0 1-.75-.75Z" fill="#fff"/><path d="M9.824 7.5h.975v3.931l-3.824.638v9.456h3.824v.975H6V11.243l3.824-.637V7.5Z" fill="#fff"/><path d="M8.986 14.778a1.05 1.05 0 1 1 .001-2.101 1.05 1.05 0 0 1 0 2.1Z" fill="#fff"/></g><defs><clipPath id="a"><path fill="#fff" d="M0 0h30v30H0z"/></clipPath></defs></svg>
